packages/ui-solid/icons/stats_28.svg

<svg width="28" height="28" viewBox="0 0 28 28" fill="none" xmlns="http://www.w3.org/2000/svg">
<path fill-rule="evenodd" clip-rule="evenodd" d="M13.1006 4.39656C8.21311 4.84405 4.40342 8.8996 4.40342 13.8145C4.40342 19.0273 8.68894 23.2735 14.0006 23.2735C19.003 23.2735 23.0953 19.5074 23.5548 14.7145L16.2643 14.7145C15.7641 14.7146 15.3025 14.7146 14.9264 14.6641C14.5112 14.6083 14.0682 14.4764 13.7035 14.1116C13.3388 13.7469 13.2069 13.304 13.151 12.8887C13.1005 12.5126 13.1005 12.051 13.1006 11.5508C13.1006 11.5332 13.1006 11.5154 13.1006 11.4977V4.39656ZM14.9006 4.39656V11.4977C14.9006 12.0692 14.9025 12.4073 14.935 12.6488C14.9502 12.7621 14.9679 12.8158 14.9775 12.8376C14.9993 12.8473 15.053 12.8649 15.1663 12.8801C15.4078 12.9126 15.7459 12.9145 16.3175 12.9145H23.5548C23.1232 8.41251 19.4863 4.81642 14.9006 4.39656ZM14.965 12.8304C14.9654 12.8303 14.9683 12.8317 14.9724 12.8352C14.9666 12.8324 14.9645 12.8306 14.965 12.8304ZM14.9799 12.8427C14.9834 12.8468 14.9848 12.8497 14.9847 12.8502C14.9845 12.8506 14.9828 12.8485 14.9799 12.8427ZM2.60342 13.8145C2.60342 7.58517 7.71739 2.55557 14.0006 2.55557C20.2838 2.55557 25.3978 7.58517 25.3978 13.8145C25.3978 20.0439 20.2838 25.0735 14.0006 25.0735C7.71739 25.0735 2.60342 20.0439 2.60342 13.8145Z" fill="#007AFF"/>
</svg>

<svg xmlns="http://www.w3.org/2000/svg" width="28" height="28" fill="none"><path fill="currentColor" fill-rule="evenodd" d="M13.1 4.397c-4.887.447-8.697 4.503-8.697 9.418 0 5.212 4.286 9.458 9.598 9.458 5.002 0 9.094-3.766 9.554-8.558h-7.29c-.5 0-.963 0-1.339-.05-.415-.057-.858-.189-1.223-.553-.364-.365-.496-.808-.552-1.223-.05-.376-.05-.838-.05-1.338zm1.8 0v7.1c0 .572.002.91.035 1.152a.8.8 0 0 0 .042.189c.022.01.076.027.19.042.24.033.579.034 1.15.034h7.238c-.432-4.501-4.069-8.098-8.654-8.517m.065 8.433.007.005q-.008-.004-.007-.005m.015.013.005.007zm-12.377.972c0-6.23 5.114-11.26 11.398-11.26S25.4 7.585 25.4 13.815 20.284 25.074 14 25.074s-11.398-5.03-11.398-11.26" clip-rule="evenodd"/></svg>
